X: 1
T: Vika Brudmarsch av Brodd Albin Johansson
O: Sweden
B: Svenska Folkl\aatar f\"or tv\aa fioler
N: Arr: Ivar G\"oransson
Z: 2006 John Chambers <jc@trillian.mit.edu>
M: 2/4
L: 1/16
K: A
e2 | "A"a2ab "D"{ab}a2gf | "A"e2ef ecAc | "E7"cBBc dBGB |1,3 "A"AECE ABce :|2,4 "A"A6 :|
|: ce | "A"[a4c4] "E7"{ga}gegb | "D"abaf dfaf | "A"Tf2e2 eaec | "A"A6 c2 | "E7"Tc2B2 BdBG |
| "E7"E2GB dBGB |1,3 "A"AGAB cBcd | "(E7)"efed "A"cA :|2,4 "A"A4 "E7"{GA}GEGB | "A"[A6C6] :|
